img/paypal.svg

<svg width="76" height="20" viewBox="0 0 76 20" fill="none" xmlns="http://www.w3.org/2000/svg">
<g clip-path="url(#clip0_298_32542)">
<path d="M24.6863 3.99957C24.5311 3.99957 24.3992 4.11229 24.3749 4.26576L22.5777 15.663C22.5712 15.7046 22.5738 15.7472 22.5853 15.7877C22.5967 15.8283 22.6169 15.8658 22.6443 15.8979C22.6717 15.9299 22.7056 15.9556 22.7439 15.9732C22.7822 15.9909 22.8238 16 22.866 16H24.9973C25.1523 16 25.2844 15.8871 25.3087 15.7338L25.8366 12.3869C25.8607 12.2337 25.9928 12.1207 26.148 12.1207H28.0858C30.3499 12.1207 32.2718 10.4688 32.6228 8.23034C32.9768 5.97295 31.2133 4.00447 28.7137 3.99957H24.6863ZM26.7582 6.54387H28.3085C29.5849 6.54387 30.0006 7.297 29.8692 8.12988C29.7377 8.96454 29.0922 9.57934 27.8575 9.57934H26.2795L26.7582 6.54387ZM36.9576 7.31861C36.4195 7.32061 35.8002 7.43088 35.105 7.72046C33.5103 8.38515 32.7445 9.75888 32.4192 10.7604C32.4192 10.7604 31.3841 13.8159 33.7228 15.4946C33.7228 15.4946 35.8918 17.1107 38.3334 15.395L38.2913 15.663C38.2847 15.7046 38.2873 15.7471 38.2987 15.7876C38.3102 15.8281 38.3303 15.8657 38.3576 15.8977C38.385 15.9297 38.4189 15.9554 38.4571 15.9731C38.4954 15.9908 38.5369 15.9999 38.5791 16H40.6023C40.7576 16 40.8895 15.8871 40.9137 15.7338L42.1445 7.92895C42.1511 7.88733 42.1486 7.84476 42.1371 7.80419C42.1257 7.76362 42.1056 7.72601 42.0783 7.69394C42.0509 7.66187 42.017 7.6361 41.9787 7.61842C41.9404 7.60073 41.8988 7.59154 41.8567 7.59148H39.8334C39.6781 7.59148 39.546 7.70442 39.522 7.85767L39.4558 8.27779C39.4558 8.27779 38.5724 7.31259 36.9576 7.31861ZM37.0238 9.78383C37.2561 9.78383 37.4686 9.8159 37.6593 9.87716C38.5323 10.1574 39.0272 10.9961 38.884 11.9051C38.7074 13.0245 37.7894 13.8486 36.6121 13.8486C36.38 13.8486 36.1675 13.8168 35.9766 13.7555C35.1039 13.4753 34.6058 12.6366 34.749 11.7276C34.9257 10.6082 35.8465 9.78383 37.0238 9.78383Z" fill="white"/>
<path d="M53.8231 3.99957C53.6678 3.99957 53.5359 4.11229 53.5116 4.26576L51.7145 15.663C51.7079 15.7046 51.7105 15.7472 51.722 15.7877C51.7335 15.8283 51.7536 15.8658 51.781 15.8979C51.8084 15.9299 51.8424 15.9556 51.8807 15.9732C51.9189 15.9909 51.9606 16 52.0027 16H54.134C54.2891 16 54.4211 15.8871 54.4454 15.7338L54.9734 12.3869C54.9974 12.2337 55.1295 12.1207 55.2848 12.1207H57.2225C59.4866 12.1207 61.4083 10.4688 61.7591 8.23034C62.1133 5.97295 60.35 4.00447 57.8504 3.99957H53.8231ZM55.8949 6.54387H57.4453C58.7216 6.54387 59.1373 7.297 59.0059 8.12988C58.8745 8.96454 58.2291 9.57934 56.9942 9.57934H55.4162L55.8949 6.54387ZM66.0941 7.31861C65.556 7.32061 64.9367 7.43088 64.2415 7.72046C62.6468 8.38515 61.881 9.75888 61.5557 10.7604C61.5557 10.7604 60.521 13.8159 62.8597 15.4946C62.8597 15.4946 65.0283 17.1107 67.4701 15.395L67.428 15.663C67.4214 15.7046 67.424 15.7472 67.4355 15.7877C67.447 15.8283 67.4671 15.8658 67.4945 15.8979C67.5219 15.9299 67.5559 15.9556 67.5942 15.9732C67.6324 15.9909 67.6741 16 67.7162 16H69.7393C69.8945 16 70.0264 15.8871 70.0507 15.7338L71.2818 7.92895C71.2885 7.88729 71.2859 7.84469 71.2745 7.80408C71.263 7.76348 71.2429 7.72585 71.2155 7.69377C71.1881 7.66169 71.1541 7.63594 71.1158 7.61828C71.0775 7.60062 71.0358 7.59148 70.9936 7.59148H68.9703C68.8151 7.59148 68.683 7.70442 68.6589 7.85767L68.5928 8.27779C68.5928 8.27779 67.7089 7.31259 66.0941 7.31861ZM66.1603 9.78383C66.3926 9.78383 66.6051 9.8159 66.7958 9.87716C67.6688 10.1574 68.1637 10.9961 68.0205 11.9051C67.8439 13.0245 66.9259 13.8486 65.7486 13.8486C65.5165 13.8486 65.304 13.8168 65.1131 13.7555C64.2404 13.4753 63.7423 12.6366 63.8855 11.7276C64.0622 10.6082 64.983 9.78383 66.1603 9.78383Z" fill="white" fill-opacity="0.5"/>
<path d="M43.1041 7.5915C42.9437 7.5915 42.8297 7.7481 42.8787 7.90068L45.0969 14.784L43.0912 18.0278C42.9938 18.1852 43.107 18.3886 43.2921 18.3886H45.6626C45.7304 18.3886 45.7971 18.371 45.8561 18.3377C45.9151 18.3044 45.9646 18.2564 45.9997 18.1984L52.1947 7.95013C52.2898 7.79265 52.1762 7.59128 51.9922 7.59128H49.6219C49.5534 7.59134 49.4862 7.60922 49.4267 7.64316C49.3673 7.6771 49.3177 7.72593 49.2828 7.78485L46.8444 11.9018L45.6065 7.81537C45.5662 7.68238 45.4435 7.59128 45.3047 7.59128L43.1041 7.5915Z" fill="white"/>
<path d="M73.5814 3.99957C73.4263 3.99957 73.2942 4.11251 73.27 4.26576L71.4723 15.6625C71.4657 15.7042 71.4683 15.7468 71.4797 15.7874C71.4912 15.828 71.5113 15.8656 71.5387 15.8977C71.5661 15.9298 71.6001 15.9555 71.6384 15.9732C71.6767 15.9909 71.7184 16 71.7606 16H73.8919C74.0469 16 74.179 15.8871 74.2033 15.7338L76.0005 4.3366C76.007 4.295 76.0045 4.25249 75.993 4.21197C75.9816 4.17146 75.9615 4.1339 75.9341 4.10188C75.9068 4.06987 75.8728 4.04414 75.8346 4.02648C75.7964 4.00882 75.7548 3.99964 75.7127 3.99957H73.5814Z" fill="white" fill-opacity="0.5"/>
<path d="M6.91773 3.99957C6.78044 3.99969 6.64769 4.04876 6.54333 4.13797C6.43897 4.22718 6.36984 4.35068 6.34837 4.48629L5.40234 10.4864C5.44645 10.2062 5.68791 9.99968 5.9717 9.99968H8.74387C11.5339 9.99968 13.9013 7.96437 14.3339 5.20623C14.3661 5.00031 14.3843 4.79246 14.3885 4.58408C13.6794 4.2123 12.8466 3.99957 11.9339 3.99957H6.91773Z" fill="white"/>
<path d="M14.3871 4.58432C14.383 4.7927 14.3647 5.00055 14.3325 5.20647C13.8999 7.96461 11.5323 9.99992 8.74253 9.99992H5.97035C5.68678 9.99992 5.4451 10.2062 5.401 10.4866L4.53114 16.0002L3.98628 19.4592C3.97565 19.526 3.97963 19.5943 3.99798 19.6595C4.01632 19.7246 4.04858 19.785 4.09252 19.8364C4.13646 19.8879 4.19104 19.9292 4.2525 19.9575C4.31396 19.9858 4.38083 20.0005 4.4485 20.0005H7.45746C7.59475 20.0003 7.7275 19.9513 7.83186 19.8621C7.93622 19.7729 8.00534 19.6493 8.02681 19.5137L8.81937 14.4869C8.84085 14.3512 8.91004 14.2276 9.0145 14.1384C9.11895 14.0492 9.25181 14.0001 9.38918 14.0001H11.1607C13.9507 14.0001 16.3182 11.9648 16.7508 9.20669C17.0579 7.24913 16.072 5.46776 14.3871 4.58432Z" fill="white" fill-opacity="0.5"/>
<path d="M3.49886 0.000244141C3.2153 0.000244141 2.97362 0.206515 2.92951 0.486516L0.568311 15.4592C0.523538 15.7434 0.743179 16.0004 1.03098 16.0004H4.53245L5.40186 10.4868L6.34788 4.48673C6.36935 4.35113 6.43849 4.22762 6.54285 4.13841C6.64721 4.0492 6.77996 4.00013 6.91725 4.00002H11.9334C12.8463 4.00002 13.679 4.21297 14.388 4.58452C14.4365 2.07342 12.3645 0.000244141 9.51567 0.000244141H3.49886Z" fill="white"/>
</g>
<defs>
<clipPath id="clip0_298_32542">
<rect width="75.4394" height="20" fill="white" transform="translate(0.5625)"/>
</clipPath>
</defs>
</svg>

<svg xmlns="http://www.w3.org/2000/svg" width="76" height="20" fill="none"><g fill="#fff" clip-path="url(#a)"><path d="M24.686 4a.315.315 0 0 0-.311.266l-1.797 11.397a.292.292 0 0 0 .288.337h2.131a.315.315 0 0 0 .312-.266l.528-3.347a.315.315 0 0 1 .311-.266h1.938a4.596 4.596 0 0 0 4.537-3.89c.354-2.258-1.41-4.227-3.91-4.231zm2.072 2.544h1.55c1.277 0 1.693.753 1.561 1.586-.131.835-.777 1.45-2.011 1.45h-1.579zm10.2.775c-.538.002-1.158.112-1.853.401-1.595.665-2.36 2.039-2.686 3.04 0 0-1.035 3.056 1.304 4.735 0 0 2.169 1.616 4.61-.1l-.042.268a.29.29 0 0 0 .288.337h2.023a.315.315 0 0 0 .312-.266l1.23-7.805a.29.29 0 0 0-.287-.338h-2.024a.315.315 0 0 0-.311.267l-.066.42s-.884-.965-2.498-.96m.066 2.465q.349 0 .635.093c.873.28 1.368 1.12 1.225 2.028-.177 1.12-1.095 1.944-2.272 1.944q-.349 0-.635-.094c-.873-.28-1.371-1.118-1.228-2.027a2.27 2.27 0 0 1 2.275-1.944"/><path fill-opacity=".5" d="M53.823 4a.315.315 0 0 0-.311.266l-1.797 11.397a.29.29 0 0 0 .288.337h2.131a.315.315 0 0 0 .311-.266l.528-3.347a.315.315 0 0 1 .312-.266h1.938a4.595 4.595 0 0 0 4.536-3.89C62.113 5.972 60.35 4.003 57.85 4zm2.072 2.544h1.55c1.277 0 1.692.753 1.56 1.586-.13.835-.776 1.45-2.01 1.45h-1.579zm10.2.775c-.539.002-1.158.112-1.853.401-1.595.665-2.361 2.039-2.686 3.04 0 0-1.035 3.056 1.304 4.735 0 0 2.168 1.616 4.61-.1l-.042.268a.29.29 0 0 0 .288.337h2.023a.315.315 0 0 0 .312-.266l1.23-7.805a.29.29 0 0 0-.287-.338H68.97a.315.315 0 0 0-.311.267l-.066.42s-.884-.965-2.499-.96m.065 2.465q.35 0 .636.093c.873.28 1.368 1.12 1.224 2.028-.176 1.12-1.094 1.944-2.271 1.944q-.35 0-.636-.094c-.873-.28-1.37-1.118-1.227-2.027a2.27 2.27 0 0 1 2.274-1.944"/><path d="M43.104 7.592a.237.237 0 0 0-.225.309l2.218 6.883-2.006 3.244a.236.236 0 0 0 .201.36h2.37a.4.4 0 0 0 .338-.19L52.195 7.95a.237.237 0 0 0-.203-.359h-2.37a.4.4 0 0 0-.34.194l-2.438 4.117-1.238-4.087a.32.32 0 0 0-.301-.224z"/><path fill-opacity=".5" d="M73.581 4a.315.315 0 0 0-.311.266l-1.798 11.397a.293.293 0 0 0 .289.337h2.13a.315.315 0 0 0 .312-.266L76 4.337A.292.292 0 0 0 75.714 4z"/><path d="M6.918 4a.58.58 0 0 0-.57.486l-.946 6a.576.576 0 0 1 .57-.486h2.772a5.66 5.66 0 0 0 5.59-4.794 5 5 0 0 0 .055-.622A5.26 5.26 0 0 0 11.934 4z"/><path fill-opacity=".5" d="M14.387 4.584a5 5 0 0 1-.055.622A5.66 5.66 0 0 1 8.743 10H5.97a.576.576 0 0 0-.569.487L4.531 16l-.545 3.46a.468.468 0 0 0 .462.54h3.01a.58.58 0 0 0 .569-.486l.792-5.027A.58.58 0 0 1 9.39 14h1.772a5.66 5.66 0 0 0 5.59-4.793c.307-1.958-.679-3.74-2.364-4.623"/><path d="M3.499 0a.576.576 0 0 0-.57.487L.57 15.459a.468.468 0 0 0 .46.541h3.501l.87-5.513.946-6A.58.58 0 0 1 6.918 4h5.015a5.26 5.26 0 0 1 2.455.585C14.437 2.073 12.364 0 9.516 0z"/></g><defs><clipPath id="a"><path fill="#fff" d="M.563 0H76v20H.563z"/></clipPath></defs></svg>
